X: 1
T: Khasidim tanz    [Afr]
N: Handwritten MS
M: 2/4
L: 1/16
K: Aphr^c
|::: "A"Acce edde | eccd "(Gm)"dBBd | "A"Tc3B "Gm"AGAB |1,3 "A"c3B2 "(Gm)"cBAG :|2,4 "A"A4- A2z2 :|
a2\
|::: "Gm"g2ba gfed | efgf e3d | cdef gfed | cdBc "A"A4 :::|
|::: "Gm"G2AB G2AB | G2AB G3-G | ^FGAB cdcB |1,3 "A"A4- A2A2 :|2,4 "A"A4- A2z2 :|

%%sep 1 1 500

